X:1
T:Title
%%score ( 1 2 ) ( 3 4 )
L:1/8
Q:1/4=103
M:6/8
K:C
V:1 treble nm="Grand Piano, Soprano"
V:2 treble 
V:3 bass nm="Choir Pad, Caumartin, 87.87 D"
V:4 bass 
V:1
 [Ec]2 [Ec] [Ec][GB][FA] | [EG]2 [Ec] [Ec] [EG]2 | [FA]2 [FA] [EG]2 [EG] | [DB]2 [FB] [Ec]3 | %4
w: By~Daniel~Brink~Towner,~1877 * * * *||||
 [Ec]2 [Ec] cB[Ec] | [Fd]2 [Fd] [Fd][Ec][Gd] | [Ge][Fd][Ec] [Fd]2 [Fd] | [Fd][Ge][Fd] [Ec]3 | %8
w: ||||
 [Ec]2 [Ec] [Fc]2 [Fc] | [Ac][GB][FA] [EG]2 [CE] | [Ec]2 [Ec] [Fc]2 [Fc] | [FB]2 [Ec] [Gd]3 | %12
w: ||||
 [Gd]2 [Gd] [Ge]2 [Ge] | [Gd]2 [Gc] [Ac]2 [Ac] | [GB]2 [FA] [EG]2 [EG] | [FB]2 [FB] [Ec]3- | %16
w: ||||
 [Ec]6 |] %17
w: |
V:2
 x6 | x6 | x6 | x6 | z3 .E3 | x6 | x6 | x6 | x6 | x6 | x6 | x6 | x6 | x6 | x6 | x6 | x6 |] %17
V:3
 [C,G,]2 [C,G,] [C,G,]2 [C,C] | [C,C]2 [C,G,] [C,G,] [C,C]2 | [F,C]2 [F,C] [G,C]2 [G,C] | %3
 G,2 G, [C,G,]3 | [C,G,]2 [C,G,] [C,G,]2 [C,G,] | [G,B,]2 [G,B,] B,C[G,B,] | %6
 [C,C]2 [C,C] [G,B,]2 [G,B,] | [G,B,]2 [G,B,] [C,C]3 | [C,G,]2 [C,G,] [F,A,]2 [F,A,] | %9
 [F,C]2 [F,C] [C,C]2 [C,G,] | [C,G,]2 [C,G,] [F,A,]2 [F,A,] | [D,G,]2 [C,G,] [G,B,]3 | %12
 [G,B,]2 [G,B,] [C,C]2 [C,C] | [D,B,]2 [E,_B,] [F,A,]2 [F,C] | [F,D]2 [F,C] [G,C]2 [G,C] | %15
 [G,,G,]2 [G,,G,] [C,G,]3- | [C,G,]6 |] %17
V:4
 x6 | x6 | x6 | x6 | x6 | z3 .G,3 | x6 | x6 | x6 | x6 | x6 | x6 | x6 | x6 | x6 | x6 | x6 |] %17

